mimetypes/64/office-presentation.svg

<?xml version="1.0" encoding="UTF-8" standalone="no"?>
<!-- Created with Inkscape (http://www.inkscape.org/) -->

<svg
   xmlns:dc="http://purl.org/dc/elements/1.1/"
   xmlns:cc="http://creativecommons.org/ns#"
   xmlns:rdf="http://www.w3.org/1999/02/22-rdf-syntax-ns#"
   xmlns:svg="http://www.w3.org/2000/svg"
   xmlns="http://www.w3.org/2000/svg"
   xmlns:sodipodi="http://sodipodi.sourceforge.net/DTD/sodipodi-0.dtd"
   xmlns:inkscape="http://www.inkscape.org/namespaces/inkscape"
   version="1.1"
   width="64"
   height="64"
   id="svg13094"
   inkscape:version="0.48.4 r9939"
   sodipodi:docname="office-presentation.svg">
  <sodipodi:namedview
     pagecolor="#ffffff"
     bordercolor="#666666"
     borderopacity="1"
     objecttolerance="10"
     gridtolerance="10"
     guidetolerance="10"
     inkscape:pageopacity="0"
     inkscape:pageshadow="2"
     inkscape:window-width="1920"
     inkscape:window-height="1022"
     id="namedview68"
     showgrid="true"
     inkscape:zoom="10.429825"
     inkscape:cx="38.157461"
     inkscape:cy="29.010006"
     inkscape:window-x="-5"
     inkscape:window-y="23"
     inkscape:window-maximized="1"
     inkscape:current-layer="svg13094"
     inkscape:snap-bbox="true"
     inkscape:bbox-paths="true"
     inkscape:bbox-nodes="true"
     inkscape:snap-bbox-edge-midpoints="true"
     inkscape:snap-bbox-midpoints="true"
     inkscape:object-paths="true"
     inkscape:snap-intersection-paths="true"
     inkscape:object-nodes="true"
     inkscape:snap-smooth-nodes="true"
     inkscape:snap-midpoints="true"
     inkscape:snap-object-midpoints="true"
     inkscape:snap-center="true">
    <inkscape:grid
       type="xygrid"
       id="grid3839" />
  </sodipodi:namedview>
  <defs
     id="defs11" />
  <metadata
     id="metadata13099">
    <rdf:RDF>
      <cc:Work
         rdf:about="">
        <dc:format>image/svg+xml</dc:format>
        <dc:type
           rdf:resource="http://purl.org/dc/dcmitype/StillImage" />
        <dc:title />
      </cc:Work>
    </rdf:RDF>
  </metadata>
  <path
     inkscape:connector-curvature="0"
     d="M 4,0 64,0 64,62 4,62 z"
     id="path3960"
     style="fill:#db4506;fill-opacity:1;fill-rule:nonzero" />
  <path
     style="fill:#802d00;fill-rule:nonzero;fill-opacity:0.3745614"
     d="M 60 2 L 60 33 L 35.677734 62 L 64 62 L 64 37 L 64 6 L 60 2 z "
     id="path3900" />
  <path
     inkscape:connector-curvature="0"
     d="M 0,2 60,2 60,33 34,64 0,64 z"
     id="path3982"
     style="fill:#ff6716;fill-rule:nonzero;color:#000000;fill-opacity:1;stroke:none;stroke-width:1;marker:none;visibility:visible;display:inline;overflow:visible;enable-background:accumulate" />
  <path
     inkscape:connector-curvature="0"
     d="M 34,64 60,33 c -2.328567,2.776369 -4.36141,3 -11,3 H 37 v 15 c 0,6.64407 0.04437,9.37018 -3,13 z"
     id="path4278"
     style="fill:#df4f0a;fill-rule:nonzero;fill-opacity:1" />
  <path
     style="font-size:medium;font-style:normal;font-variant:normal;font-weight:normal;font-stretch:normal;text-indent:0;text-align:start;text-decoration:none;line-height:normal;letter-spacing:normal;word-spacing:normal;text-transform:none;direction:ltr;block-progression:tb;writing-mode:lr-tb;text-anchor:start;baseline-shift:baseline;color:#000000;fill:#f8f2e0;fill-opacity:1;stroke:none;stroke-width:2;marker:none;visibility:visible;display:inline;overflow:visible;enable-background:accumulate;font-family:Sans;-inkscape-font-specification:Sans"
     d="M 5 7 L 5 8 L 5 21 L 5 22 L 6 22 L 14.5625 22 L 8.28125 28.28125 L 9.71875 29.71875 L 22.125 17.3125 C 22.139376 17.617321 22.140957 17.885406 22.21875 17.90625 C 22.430089 17.962878 23.163661 16.431628 23.375 16.375 C 23.586339 16.318372 24.970289 17.279711 25.125 17.125 C 25.279711 16.970289 24.318372 15.586339 24.375 15.375 C 24.431628 15.163661 25.962878 14.430089 25.90625 14.21875 C 25.849622 14.007411 24.154711 14.154711 24 14 C 23.845289 13.845289 23.992589 12.150378 23.78125 12.09375 C 23.569911 12.037122 22.836339 13.568372 22.625 13.625 C 22.413661 13.681628 21.029711 12.720289 20.875 12.875 C 20.720289 13.029711 21.681628 14.413661 21.625 14.625 C 21.568372 14.836339 20.037122 15.569911 20.09375 15.78125 C 20.114594 15.859043 20.382679 15.860624 20.6875 15.875 L 16.5625 20 L 7 20 L 7 9 L 27 9 L 27 20 L 21 20 L 21 22 L 28 22 L 29 22 L 29 21 L 29 8 L 29 7 L 28 7 L 6 7 L 5 7 z M 19.71875 22.28125 L 18.28125 23.71875 L 24.28125 29.71875 L 25.71875 28.28125 L 19.71875 22.28125 z "
     id="path3016" />
</svg>

<?xml version="1.0" encoding="UTF-8"?>
<!-- Created with Inkscape (http://www.inkscape.org/) -->
<svg width="64" height="64" version="1.1" xmlns="http://www.w3.org/2000/svg" xmlns:cc="http://creativecommons.org/ns#" xmlns:dc="http://purl.org/dc/elements/1.1/" xmlns:rdf="http://www.w3.org/1999/02/22-rdf-syntax-ns#">
	<defs>
		<linearGradient id="d" x1="82.74" x2="71" y1="79.42" y2="69" gradientTransform="translate(-34,-33)" gradientUnits="userSpaceOnUse">
			<stop stop-color="#db4506" offset="0"/>
			<stop stop-color="#d04106" offset=".2523"/>
			<stop stop-color="#db4506" offset="1"/>
		</linearGradient>
		<linearGradient id="c" x1="37" x2="48.96" y1="36" y2="46.16" gradientUnits="userSpaceOnUse">
			<stop stop-color="#ffa129" stop-opacity=".0007283" offset="0"/>
			<stop stop-color="#ffa129" stop-opacity=".06555" offset=".5903"/>
			<stop stop-color="#ffa129" stop-opacity=".1449" offset=".7003"/>
			<stop stop-color="#ffa129" stop-opacity=".2615" offset=".8081"/>
			<stop stop-color="#ffa129" stop-opacity=".4108" offset=".9019"/>
			<stop stop-color="#ffa129" stop-opacity=".5717" offset="1"/>
		</linearGradient>
		<radialGradient id="a" cx="20.34" cy="28.54" r="30" gradientTransform="matrix(1.181,0,0,1.22,-5.424,-7.265)" gradientUnits="userSpaceOnUse">
			<stop stop-color="#1b4757" stop-opacity=".06802" offset="0"/>
			<stop stop-color="#0a4f68" stop-opacity=".01013" offset="1"/>
		</radialGradient>
		<radialGradient id="b" cx="46.87" cy="36.89" r="14.16" gradientTransform="matrix(1.44,0,0,2.118,-19.19,-35.79)" gradientUnits="userSpaceOnUse">
			<stop stop-color="#550006" stop-opacity=".3137" offset="0"/>
			<stop stop-color="#480d0d" stop-opacity=".1412" offset="1"/>
		</radialGradient>
	</defs>
	<metadata>
		<rdf:RDF>
			<cc:Work rdf:about="">
				<dc:format>image/svg+xml</dc:format>
				<dc:type rdf:resource="http://purl.org/dc/dcmitype/StillImage"/>
				<dc:title/>
			</cc:Work>
		</rdf:RDF>
	</metadata>
	<path d="m4 0h60v62h-60z" fill="#db4506"/>
	<path d="m0 2h60v31l-26 31h-34z" color="#000000" fill="#ff6716"/>
	<path d="m0 2h60v31l-26 31h-34z" color="#000000" fill="url(#a)"/>
	<path d="m0 2h60v31l-26 31h-34z" color="#000000" fill="url(#c)"/>
	<path d="m34 64 26-31c-2.329 2.776-4.361 3-11 3h-12v15c0 6.644 0.04437 9.37-3 13z" fill="url(#d)"/>
	<path d="m5 7v15h9.562l-6.281 6.281 1.438 1.438 12.41-12.41c0.01438 0.3048 0.01596 0.5729 0.09375 0.5938 0.2113 0.05663 0.9449-1.475 1.156-1.531s1.595 0.9047 1.75 0.75-0.8066-1.539-0.75-1.75 1.588-0.9449 1.531-1.156-1.752-0.06404-1.906-0.2188-0.007411-1.85-0.2188-1.906-0.9449 1.475-1.156 1.531-1.595-0.9047-1.75-0.75 0.8066 1.539 0.75 1.75-1.588 0.9449-1.531 1.156c0.02084 0.07779 0.2889 0.07937 0.5938 0.09375l-4.125 4.125h-9.562v-11h20v11h-6v2h8v-15h-24zm14.72 15.28-1.438 1.438 6 6 1.438-1.438-6-6z" color="#000000" fill="#f8f2e0" style="block-progression:tb;text-indent:0;text-transform:none"/>
	<path d="m60 2v31l-24.32 29h28.32v-56z" fill="url(#b)"/>
</svg>
